assets/logos/icons/image.svg

<svg height="24" viewBox="0 0 24 24" width="24" xmlns="http://www.w3.org/2000/svg"><path d="m19.9999999 3.99999996h-15.99999995c-1.1 0-2 .9-2 2v12.00000004c0 1.1.9 2 2 2h15.99999995c1.1000001 0 2.0000002-.9 2-2v-12.00000004c.0000002-1.1-.8999999-2-2-2zm-13.79999993 14.00000004 5.20000003-5.2 5.2 5.2zm13.80000003 0h-.5l-1.8-1.8 2.3-2.2zm0-6.8-3.8 3.6-4.8-4.80000001-7.40000004 7.40000001v-11.40000003h16.00000004zm-4 .8c1.1045695 0 2-.8954305 2-2.00000002 0-1.1045695-.8954305-2-2-2s-2 .8954305-2 2c0 1.10456952.8954305 2.00000002 2 2.00000002z" fill="#492f5c" fill-rule="evenodd"/></svg>

<svg xmlns="http://www.w3.org/2000/svg" width="24" height="24" viewBox="0 0 24 24">
  <path fill="#492F5C" fill-rule="evenodd" d="M19.9999999,3.99999996 L3.99999995,3.99999996 C2.89999995,3.99999996 1.99999995,4.89999996 1.99999995,5.99999996 L1.99999995,18 C1.99999995,19.1 2.89999995,20 3.99999995,20 L19.9999999,20 C21.1,20 22.0000001,19.1 21.9999999,18 L21.9999999,5.99999996 C22.0000001,4.89999996 21.1,3.99999996 19.9999999,3.99999996 Z M6.19999997,18 L11.4,12.8 L16.6,18 L6.19999997,18 Z M20,18 L19.5,18 L17.7,16.2 L20,14 L20,18 Z M20,11.2 L16.2,14.8 L11.4,9.99999999 L3.99999996,17.4 L3.99999996,5.99999997 L20,5.99999997 L20,11.2 Z M16,12 C17.1045695,12 18,11.1045695 18,9.99999998 C18,8.89543048 17.1045695,7.99999998 16,7.99999998 C14.8954305,7.99999998 14,8.89543048 14,9.99999998 C14,11.1045695 14.8954305,12 16,12 Z"/>
</svg>
